images/animation_splash.svg

<?xml version="1.0" encoding="UTF-8" standalone="no"?><!DOCTYPE svg PUBLIC "-//W3C//DTD SVG 1.1//EN" "http://www.w3.org/Graphics/SVG/1.1/DTD/svg11.dtd"><svg width="100%" height="100%" viewBox="0 0 650 471" version="1.1" xmlns="http://www.w3.org/2000/svg" xmlns:xlink="http://www.w3.org/1999/xlink" xml:space="preserve" xmlns:serif="http://www.serif.com/" style="fill-rule:evenodd;clip-rule:evenodd;stroke-linecap:round;stroke-linejoin:round;stroke-miterlimit:1.5;"><rect id="Artboard9" x="0" y="0" width="649.203" height="470.359" style="fill:none;"/><clipPath id="_clip1"><rect x="0" y="0" width="649.203" height="470.359"/></clipPath><g clip-path="url(#_clip1)"><g><path d="M240.854,364.744c126.589,-21.182 110.662,64.799 198.111,95.989c72.359,25.808 111.083,-24.852 74.344,-88.431" style="fill:none;stroke:#446cbd;stroke-width:5.5px;"/><g><path d="M109.65,159.454l90.133,25.381l102.205,220.181l-90.133,-25.38l-102.205,-220.182Z" style="fill:url(#_Linear2);"/><path d="M219.3,103.145l-219.3,112.618l102.205,220.181l219.299,-112.617l-102.204,-220.182Z" style="fill:url(#_Linear3);"/></g><g><path d="M649.203,351.264l-102.205,-220.181l-166.946,25.845l102.205,220.181l166.946,-25.845Z" style="fill:url(#_Linear4);"/><path d="M479.619,220.182l-102.205,-220.182l2.638,156.928l102.205,220.181l-2.638,-156.927Z" style="fill:#d3d8ed;"/></g><g><path d="M214.213,125.006l-194.696,99.983l87.775,189.095l194.696,-99.983l-87.775,-189.095Z" style="fill:url(#_Linear5);"/><clipPath id="_clip6"><path d="M214.213,125.006l-194.696,99.983l87.775,189.095l194.696,-99.983l-87.775,-189.095Z"/></clipPath><g clip-path="url(#_clip6)"><g><path d="M168.872,348.178l-68.516,10.607l16.918,36.448l68.517,-10.607l-16.919,-36.448Z" style="fill:url(#_Linear7);"/><path d="M118.158,331.289l104.46,-16.172l-40.504,-87.257l-104.46,16.171l40.504,87.258Z" style="fill:url(#_Linear8);"/><path d="M197.15,343.8l-16.048,2.485l16.919,36.448l16.048,-2.484l-16.919,-36.449Z" style="fill:url(#_Linear9);"/><path d="M276.027,357.27l19.474,-3.015l-70.403,-151.671l-19.474,3.015l70.403,151.671Z" style="fill:url(#_Linear10);"/></g><circle cx="150.136" cy="232.81" r="18.621" style="fill:#e43fa8;"/><path d="M209.477,262.627l-23.686,37.191l39.665,0l-15.979,-37.191Z" style="fill:#66eaa1;"/><rect x="83.157" y="261.724" width="32.479" height="32.479" style="fill:#75dff4;"/></g></g><g><path d="M301.814,427.002l-126.673,19.637l4.887,10.528l126.684,-19.612l-4.898,-10.553Z" style="fill:#f4e675;"/><path d="M329.604,434.011l-18.336,-8.446l4.887,10.528l13.449,-2.082Z" style="fill:#2e4880;"/><path d="M165.54,448.099l-13.437,2.106l4.887,10.528l13.449,-2.082l-4.899,-10.552Z" style="fill:#e43fa8;"/></g></g></g><defs><linearGradient id="_Linear2" x1="0" y1="0" x2="1" y2="0" gradientUnits="userSpaceOnUse" gradientTransform="matrix(90.1331,25.3806,-25.3806,90.1331,211.855,379.636)"><stop offset="0" style="stop-color:#2e4880;stop-opacity:1"/><stop offset="1" style="stop-color:#5e7fc6;stop-opacity:1"/></linearGradient><linearGradient id="_Linear3" x1="0" y1="0" x2="1" y2="0" gradientUnits="userSpaceOnUse" gradientTransform="matrix(219.3,-112.617,112.617,219.3,102.205,435.944)"><stop offset="0" style="stop-color:#2e4880;stop-opacity:1"/><stop offset="1" style="stop-color:#5e7fc6;stop-opacity:1"/></linearGradient><linearGradient id="_Linear4" x1="0" y1="0" x2="1" y2="0" gradientUnits="userSpaceOnUse" gradientTransform="matrix(162.708,-34.9752,34.9752,162.708,414.12,230.321)"><stop offset="0" style="stop-color:#6e7ec5;stop-opacity:1"/><stop offset="0.2" style="stop-color:#96a1d5;stop-opacity:1"/><stop offset="0.43" style="stop-color:#bfc6e5;stop-opacity:1"/><stop offset="1" style="stop-color:#d3d8ed;stop-opacity:1"/></linearGradient><linearGradient id="_Linear5" x1="0" y1="0" x2="1" y2="0" gradientUnits="userSpaceOnUse" gradientTransform="matrix(159.217,239.866,-239.866,159.217,160.752,102.287)"><stop offset="0" style="stop-color:#2e4880;stop-opacity:1"/><stop offset="1" style="stop-color:#446cbd;stop-opacity:1"/></linearGradient><linearGradient id="_Linear7" x1="0" y1="0" x2="1" y2="0" gradientUnits="userSpaceOnUse" gradientTransform="matrix(212.105,111.113,-111.113,212.105,83.3962,243.142)"><stop offset="0" style="stop-color:#eff0f2;stop-opacity:1"/><stop offset="1" style="stop-color:#d3d8ed;stop-opacity:1"/></linearGradient><linearGradient id="_Linear8" x1="0" y1="0" x2="1" y2="0" gradientUnits="userSpaceOnUse" gradientTransform="matrix(212.105,111.113,-111.113,212.105,83.3962,243.142)"><stop offset="0" style="stop-color:#eff0f2;stop-opacity:1"/><stop offset="1" style="stop-color:#d3d8ed;stop-opacity:1"/></linearGradient><linearGradient id="_Linear9" x1="0" y1="0" x2="1" y2="0" gradientUnits="userSpaceOnUse" gradientTransform="matrix(212.105,111.113,-111.113,212.105,83.3962,243.142)"><stop offset="0" style="stop-color:#eff0f2;stop-opacity:1"/><stop offset="1" style="stop-color:#d3d8ed;stop-opacity:1"/></linearGradient><linearGradient id="_Linear10" x1="0" y1="0" x2="1" y2="0" gradientUnits="userSpaceOnUse" gradientTransform="matrix(212.105,111.113,-111.113,212.105,83.3962,243.142)"><stop offset="0" style="stop-color:#eff0f2;stop-opacity:1"/><stop offset="1" style="stop-color:#d3d8ed;stop-opacity:1"/></linearGradient></defs></svg>

<?xml version="1.0" encoding="UTF-8" standalone="no"?>
<!DOCTYPE svg PUBLIC "-//W3C//DTD SVG 1.1//EN" "http://www.w3.org/Graphics/SVG/1.1/DTD/svg11.dtd">
<svg width="100%" height="100%" viewBox="0 0 650 471" version="1.1" xmlns="http://www.w3.org/2000/svg" xmlns:xlink="http://www.w3.org/1999/xlink" xml:space="preserve" xmlns:serif="http://www.serif.com/" style="fill-rule:evenodd;clip-rule:evenodd;stroke-linecap:round;stroke-linejoin:round;stroke-miterlimit:1.5;">
    <rect id="Artboard9" x="0" y="0" width="649.203" height="470.359" style="fill:none;"/>
    <g>
        <path d="M240.854,364.744C367.443,343.562 351.516,429.543 438.965,460.733C511.324,486.541 550.048,435.881 513.309,372.302" style="fill:none;stroke:url(#_Linear1);stroke-width:5.5px;"/>
        <g>
            <path d="M109.65,159.454L199.783,184.835L301.988,405.016L211.855,379.636L109.65,159.454Z" style="fill:url(#_Linear2);"/>
            <path d="M219.3,103.145L0,215.763L102.205,435.944L321.504,323.327L219.3,103.145Z" style="fill:rgb(51,51,51);"/>
        </g>
        <g>
            <path d="M649.203,351.264L546.998,131.083L380.052,156.928L482.257,377.109L649.203,351.264Z" style="fill:url(#_Linear3);"/>
            <path d="M479.619,220.182L377.414,0L380.052,156.928L482.257,377.109L479.619,220.182Z" style="fill:rgb(235,235,235);"/>
        </g>
        <g>
            <path d="M214.213,125.006L19.517,224.989L107.292,414.084L301.988,314.101L214.213,125.006Z" style="fill:rgb(235,235,235);"/>
            <g>
                <clipPath id="_clip4">
                    <path d="M214.213,125.006L19.517,224.989L107.292,414.084L301.988,314.101L214.213,125.006Z"/>
                </clipPath>
                <g clip-path="url(#_clip4)">
                    <g>
                        <path d="M168.872,348.178L100.356,358.785L117.274,395.233L185.791,384.626L168.872,348.178Z" style="fill:white;"/>
                        <path d="M118.158,331.289L222.618,315.117L182.114,227.86L77.654,244.031L118.158,331.289Z" style="fill:white;"/>
                        <path d="M197.15,343.8L181.102,346.285L198.021,382.733L214.069,380.249L197.15,343.8Z" style="fill:white;"/>
                        <path d="M276.027,357.27L295.501,354.255L225.098,202.584L205.624,205.599L276.027,357.27Z" style="fill:white;"/>
                    </g>
                    <circle cx="150.136" cy="232.81" r="18.621" style="fill:rgb(218,71,105);"/>
                    <path d="M209.477,262.627L185.791,299.818L225.456,299.818L209.477,262.627Z" style="fill:rgb(71,108,218);"/>
                    <rect x="83.157" y="261.724" width="32.479" height="32.479" style="fill:rgb(71,218,147);"/>
                </g>
            </g>
        </g>
        <g>
            <path d="M301.814,427.002L175.141,446.639L180.028,457.167L306.712,437.555L301.814,427.002Z" style="fill:rgb(51,51,51);"/>
            <path d="M329.604,434.011L311.268,425.565L316.155,436.093L329.604,434.011Z" style="fill:rgb(51,51,51);"/>
            <path d="M165.54,448.099L152.103,450.205L156.99,460.733L170.439,458.651L165.54,448.099Z" style="fill:rgb(51,51,51);"/>
        </g>
    </g>
    <defs>
        <linearGradient id="_Linear1" x1="0" y1="0" x2="1" y2="0" gradientUnits="userSpaceOnUse" gradientTransform="matrix(221.216,-12.2942,12.2942,221.216,294.741,389.403)"><stop offset="0" style="stop-color:rgb(223,223,223);stop-opacity:1"/><stop offset="1" style="stop-color:rgb(235,235,235);stop-opacity:1"/></linearGradient>
        <linearGradient id="_Linear2" x1="0" y1="0" x2="1" y2="0" gradientUnits="userSpaceOnUse" gradientTransform="matrix(90.1333,25.3806,-25.3806,90.1333,211.855,379.635)"><stop offset="0" style="stop-color:rgb(195,195,195);stop-opacity:1"/><stop offset="1" style="stop-color:rgb(235,235,235);stop-opacity:1"/></linearGradient>
        <linearGradient id="_Linear3" x1="0" y1="0" x2="1" y2="0" gradientUnits="userSpaceOnUse" gradientTransform="matrix(165.183,-29.6433,29.6433,165.183,449.958,307.527)"><stop offset="0" style="stop-color:rgb(221,221,221);stop-opacity:1"/><stop offset="1" style="stop-color:rgb(235,235,235);stop-opacity:1"/></linearGradient>
    </defs>
</svg>
